src/icons/hds/ui/eye.svg

<svg xmlns="http://www.w3.org/2000/svg" width="24" height="24" viewBox="0 0 24 24">
  <g fill="none" fill-rule="evenodd">
    <rect width="24" height="24"/>
    <path fill="currentColor" d="M12,4.5 C16.0500882,4.5 19.7167548,7 23,12 C19.7167548,17 16.0500882,19.5 12,19.5 C7.94991183,19.5 4.28324517,17 1,12 C4.28324517,7 7.94991183,4.5 12,4.5 Z M12,6.5 C9.0485382,6.5 6.24959586,8.20372297 3.57529219,11.8024381 L3.43,12 L3.57529219,12.1975619 C6.1991373,15.7283767 8.94296211,17.435034 11.8330988,17.4981791 L12,17.5 C14.9514618,17.5 17.7504041,15.796277 20.4247078,12.1975619 L20.5695,12 L20.4247078,11.8024381 C17.8008627,8.27162326 15.0570379,6.56496605 12.1669012,6.50182085 L12,6.5 Z M12,8 C14.209139,8 16,9.790861 16,12 C16,14.209139 14.209139,16 12,16 C9.790861,16 8,14.209139 8,12 C8,9.790861 9.790861,8 12,8 Z M12,10 C10.8954305,10 10,10.8954305 10,12 C10,13.1045695 10.8954305,14 12,14 C13.1045695,14 14,13.1045695 14,12 C14,10.8954305 13.1045695,10 12,10 Z"/>
  </g>
</svg>

<svg viewBox="0 0 24 24" role="img" xmlns="http://www.w3.org/2000/svg"><g fill="none" fill-rule="evenodd"><path d="M0 0h24v24H0z"/><path d="M12 4.5c4.05 0 7.717 2.5 11 7.5-3.283 5-6.95 7.5-11 7.5S4.283 17 1 12c3.283-5 6.95-7.5 11-7.5zm0 2c-2.951 0-5.75 1.704-8.425 5.302L3.43 12l.145.198c2.624 3.53 5.368 5.237 8.258 5.3L12 17.5c2.951 0 5.75-1.704 8.425-5.302L20.57 12l-.145-.198c-2.624-3.53-5.368-5.237-8.258-5.3L12 6.5zM12 8a4 4 0 110 8 4 4 0 010-8zm0 2a2 2 0 100 4 2 2 0 000-4z" fill="currentColor"/></g></svg>
